X:300
T:Nighean Donn a' Chuailein Riomhaich
C:Joe Buchanan's Scottish Tome - Page 506.0
I:506 0
C:AKA Lassie With The Golden Hair
Z:Jo Wegstein
R:Jig
L:1/8
M:3/4
K:Cmaj
C6 | C4 E2 | G4 A2 | c4 G2 |
A4 E2 | G4 E2 | D4 E2 | A2 G4 |
C6 | C4 E2 | G4 A2 | c4 G2 |
A4 E2 | G4 E2 | D2 C4 | C6 |
c6 | c4 e2 | d2 c4 | c4 G2 |
E4 F2 | G4 G2 | _B4 A2 | A2 G4 |
G4 c2 | e4 e2 | d2 c2> d2 | c4
G2 | A4 E2 | G4 E2 | D2 C4 | C6 |]
